assets/Cloud with lightning and rain/Flat/cloud_with_lightning_and_rain_flat.svg

<svg width="32" height="32" viewBox="0 0 32 32" fill="none" xmlns="http://www.w3.org/2000/svg">
<path d="M5.2001 26.63L7.51009 23.47C8.08009 22.69 7.91009 21.6 7.13009 21.03C6.35009 20.46 5.26009 20.63 4.69009 21.41L2.38009 24.57C1.81009 25.35 1.98009 26.44 2.76009 27.01C3.54009 27.58 4.6301 27.41 5.2001 26.63ZM10.2001 29.28L12.5101 26.12C13.0801 25.34 12.9101 24.24 12.1301 23.68C11.3501 23.11 10.2601 23.28 9.69009 24.06L7.38009 27.22C6.81009 28 6.98009 29.09 7.76009 29.66C8.54009 30.23 9.6301 30.06 10.2001 29.28ZM23.6099 23.47L21.2999 26.63C20.7299 27.41 19.6399 27.58 18.8599 27.01C18.0799 26.44 17.9099 25.35 18.4799 24.57L20.7899 21.41C21.3599 20.63 22.4499 20.46 23.2299 21.03C24.0099 21.6 24.1799 22.69 23.6099 23.47ZM26.2999 29.28L28.6099 26.12C29.1799 25.34 29.0099 24.24 28.2299 23.68C27.4499 23.11 26.3599 23.28 25.7899 24.06L23.4799 27.22C22.9099 28 23.0799 29.09 23.8599 29.66C24.6399 30.23 25.7299 30.06 26.2999 29.28Z" fill="#3F5FFF"/>
<path d="M30 11C30 15.9706 25.9706 20 21 20H8.60377L8.55089 19.9998L8.50001 20C7.52397 20 6.59818 19.7849 5.76746 19.3994C3.53963 18.4012 2 16.2635 2 13.7873C2 13.7406 2.00055 13.694 2.00164 13.6475C2.00055 13.5984 2 13.5493 2 13.5C2 9.91014 4.91016 7 8.50001 7C8.77546 7 9.04692 7.01713 9.31336 7.0504C9.86448 5.84081 11.084 5 12.5 5C13.0381 5 13.5479 5.12145 14.0034 5.33844C15.6534 3.30187 18.1747 2 21 2C25.9706 2 30 6.02944 30 11Z" fill="#1345B7"/>
<path d="M19.5854 19.6219L14.7328 26.9008C14.5133 27.2301 14 27.0747 14 26.6789L13.9999 21.4C13.9999 21.1791 13.8208 21 13.5999 21H12.7217C12.4075 21 12.216 20.6544 12.3825 20.388L16.2608 14.1827C16.4738 13.8419 17 13.9929 17 14.3947V18.6C17 18.8209 17.1791 19 17.4 19H19.2526C19.5721 19 19.7626 19.3561 19.5854 19.6219Z" fill="#FF6723"/>
</svg>

<svg xmlns="http://www.w3.org/2000/svg" width="32" height="32" fill="none"><path fill="#3F5FFF" d="m5.2 26.63 2.31-3.16c.57-.78.4-1.87-.38-2.44-.78-.57-1.87-.4-2.44.38l-2.31 3.16c-.57.78-.4 1.87.38 2.44.78.57 1.87.4 2.44-.38Zm5 2.65 2.31-3.16c.57-.78.4-1.88-.38-2.44-.78-.57-1.87-.4-2.44.38l-2.31 3.16c-.57.78-.4 1.87.38 2.44.78.57 1.87.4 2.44-.38Zm13.41-5.81-2.31 3.16c-.57.78-1.66.95-2.44.38s-.95-1.66-.38-2.44l2.31-3.16c.57-.78 1.66-.95 2.44-.38s.95 1.66.38 2.44Zm2.69 5.81 2.31-3.16c.57-.78.4-1.88-.38-2.44-.78-.57-1.87-.4-2.44.38l-2.31 3.16c-.57.78-.4 1.87.38 2.44.78.57 1.87.4 2.44-.38Z"/><path fill="#1345B7" d="M30 11a9 9 0 0 1-9 9H8.5a6.475 6.475 0 0 1-2.733-.6C3.54 18.4 2 16.263 2 13.786c0-.046 0-.093.002-.14A6.5 6.5 0 0 1 9.314 7.05a3.5 3.5 0 0 1 4.69-1.712A9 9 0 0 1 30 11Z"/><path fill="#FF6723" d="M19.585 19.622 14.733 26.9a.4.4 0 0 1-.733-.222V21.4a.4.4 0 0 0-.4-.4h-.878a.4.4 0 0 1-.34-.612l3.879-6.205c.213-.341.739-.19.739.212V18.6c0 .22.18.4.4.4h1.853a.4.4 0 0 1 .332.622Z"/></svg>
